src/pos-icons/email-search-outline.svg

<svg height="24" viewBox="0 0 24 24" width="24" xmlns="http://www.w3.org/2000/svg"><path d="m16.5 11c2.5 0 4.5 2 4.5 4.5 0 .88-.25 1.71-.69 2.4l3.08 3.1-1.39 1.39-3.12-3.07c-.69.43-1.51.68-2.38.68-2.5 0-4.5-2-4.5-4.5s2-4.5 4.5-4.5m0 2c-1.38 0-2.5 1.12-2.5 2.5s1.12 2.5 2.5 2.5 2.5-1.12 2.5-2.5-1.12-2.5-2.5-2.5m-6 5h-7.5v-10l7.62 4.76c1.03-2.22 3.28-3.76 5.88-3.76.27 0 .54 0 .81.06l1.69-1.06v1.5c.75.31 1.42.77 2 1.32v-4.82c0-1.1-.9-2-2-2h-16c-1.1 0-2 .9-2 2v12c0 1.1.9 2 2 2h8.82c-.55-.58-1-1.25-1.32-2m8.5-12-8 5-8-5z"/></svg>

<?xml version="1.0" encoding="UTF-8"?><!DOCTYPE svg PUBLIC "-//W3C//DTD SVG 1.1//EN" "http://www.w3.org/Graphics/SVG/1.1/DTD/svg11.dtd"><svg xmlns="http://www.w3.org/2000/svg" xmlns:xlink="http://www.w3.org/1999/xlink" version="1.1" id="mdi-email-search-outline" width="24" height="24" viewBox="0 0 24 24"><path d="M16.5 11C19 11 21 13 21 15.5C21 16.38 20.75 17.21 20.31 17.9L23.39 21L22 22.39L18.88 19.32C18.19 19.75 17.37 20 16.5 20C14 20 12 18 12 15.5S14 11 16.5 11M16.5 13C15.12 13 14 14.12 14 15.5S15.12 18 16.5 18 19 16.88 19 15.5 17.88 13 16.5 13M10.5 18H3V8L10.62 12.76C11.65 10.54 13.9 9 16.5 9C16.77 9 17.04 9 17.31 9.06L19 8V9.5C19.75 9.81 20.42 10.27 21 10.82V6C21 4.9 20.1 4 19 4H3C1.9 4 1 4.9 1 6V18C1 19.1 1.9 20 3 20H11.82C11.27 19.42 10.82 18.75 10.5 18M19 6L11 11L3 6H19Z" /></svg>
